tools/download-figma-icons/icons/solid/doctor.svg

<svg width="24" height="24" viewBox="0 0 24 24" fill="none" xmlns="http://www.w3.org/2000/svg">
<path fill-rule="evenodd" clip-rule="evenodd" d="M20.25 15C19.8375 15 19.5 14.6625 19.5 14.25C19.5 13.8375 19.8375 13.5 20.25 13.5C20.6625 13.5 21 13.8375 21 14.25C21 14.6625 20.6625 15 20.25 15ZM6 15C6.2475 15 6.4875 14.9925 6.7125 14.9625L6.6825 15.525C6.645 16.155 6.345 16.5 6.2325 16.5H5.7675C5.655 16.5 5.355 16.155 5.3175 15.525L5.2875 14.9625C5.5125 14.9925 5.7525 15 6 15ZM20.97 10.5675H20.9662C20.7068 7.767 18.8557 6.75 17.25 6.75C15.4373 6.75 13.5 7.91625 13.5 11.1877V17.25C13.5 21.9555 11.574 22.5 10.125 22.5C8.7465 22.5 6.9405 21.9998 6.7665 17.9017C7.5465 17.6152 8.115 16.7242 8.1825 15.6075L8.2275 14.655H8.235C11.16 13.65 12 10.7025 12 9C12 8.5875 11.6625 8.25 11.25 8.25H10.875V3.375C10.875 1.9275 9.6975 0.75 8.25 0.75C8.25 0.33525 7.91475 0 7.5 0C7.08525 0 6.75 0.33525 6.75 0.75V2.25C6.75 2.66475 7.08525 3 7.5 3C7.91475 3 8.25 2.66475 8.25 2.25C8.87025 2.25 9.375 2.75475 9.375 3.375V8.25H9C8.5875 8.25 8.2575 8.5875 8.25 9C8.2425 9.375 8.115 11.25 6 11.25C3.8775 11.25 3.75 9.375 3.75 9C3.75 8.805 3.6675 8.61 3.5325 8.4675C3.39 8.3325 3.2025 8.25 3 8.25H2.625V3.375C2.625 2.75475 3.12975 2.25 3.75 2.25C3.75 2.66475 4.08525 3 4.5 3C4.91475 3 5.25 2.66475 5.25 2.25V0.75C5.25 0.33525 4.91475 0 4.5 0C4.08525 0 3.75 0.33525 3.75 0.75C2.3025 0.75 1.125 1.9275 1.125 3.375V8.25H0.75C0.3375 8.25 0 8.5875 0 9C0 9.06 0.00749999 10.5075 0.735 11.9625C1.23 12.96 2.1375 14.0925 3.765 14.655H3.7725L3.8175 15.6075C3.885 16.74 4.4775 17.64 5.265 17.91C5.2665 17.9107 5.268 17.9107 5.27025 17.9115C5.4765 22.9132 7.9935 24 10.125 24C12.3488 24 15 22.8285 15 17.25V11.1877C15 9.29325 15.7987 8.25 17.25 8.25C18.5033 8.25 19.2878 9.09075 19.4625 10.5825C17.7668 10.9425 16.5 12.45 16.5 14.25C16.5 16.32 18.18 18 20.25 18C22.32 18 24 16.32 24 14.25C24 12.4275 22.695 10.905 20.97 10.5675Z" fill="black"/>
</svg>

<svg xmlns="http://www.w3.org/2000/svg" width="24" height="24" fill="none" viewBox="0 0 24 24"><path fill="currentColor" fill-rule="evenodd" d="M20.25 15a.75.75 0 0 1-.75-.75c0-.412.337-.75.75-.75s.75.338.75.75-.337.75-.75.75M6 15c.247 0 .487-.008.713-.037l-.03.562c-.038.63-.338.975-.45.975h-.465c-.113 0-.413-.345-.45-.975l-.03-.562c.224.03.465.037.712.037m14.97-4.432h-.004c-.26-2.801-2.11-3.818-3.716-3.818-1.813 0-3.75 1.166-3.75 4.438v6.062c0 4.706-1.926 5.25-3.375 5.25-1.379 0-3.184-.5-3.359-4.598.78-.287 1.349-1.178 1.416-2.295l.045-.952h.008C11.16 13.65 12 10.703 12 9a.75.75 0 0 0-.75-.75h-.375V3.375A2.63 2.63 0 0 0 8.25.75a.75.75 0 1 0-1.5 0v1.5a.75.75 0 1 0 1.5 0c.62 0 1.125.505 1.125 1.125V8.25H9a.757.757 0 0 0-.75.75c-.008.375-.135 2.25-2.25 2.25-2.122 0-2.25-1.875-2.25-2.25a.8.8 0 0 0-.217-.533A.78.78 0 0 0 3 8.25h-.375V3.375c0-.62.505-1.125 1.125-1.125a.75.75 0 1 0 1.5 0V.75a.75.75 0 1 0-1.5 0 2.63 2.63 0 0 0-2.625 2.625V8.25H.75A.75.75 0 0 0 0 9c0 .06.007 1.508.735 2.963.495.997 1.403 2.13 3.03 2.692h.007l.046.953c.067 1.132.66 2.032 1.447 2.302l.005.002C5.477 22.913 7.994 24 10.125 24 12.349 24 15 22.828 15 17.25v-6.062c0-1.895.799-2.938 2.25-2.938 1.253 0 2.038.84 2.212 2.332A3.751 3.751 0 0 0 20.25 18a3.751 3.751 0 0 0 .72-7.432" clip-rule="evenodd"/></svg>
